www/src/assets/vendor-logos/codesandbox.svg

<svg width="23" height="23" viewBox="0 0 23 23" fill="none" xmlns="http://www.w3.org/2000/svg">
<path fill-rule="evenodd" clip-rule="evenodd" d="M11.5 11.6166V22.787C11.6945 22.787 11.8223 22.7448 11.9969 22.6451L20.9414 17.534C21.2945 17.3316 21.4385 17.0182 21.4385 16.6111V6.24691C21.4385 6.04271 21.3955 5.92055 21.2963 5.75L11.7861 11.1235C11.6092 11.2246 11.5 11.4128 11.5 11.6166ZM16.4691 18.0309C16.4691 18.3148 16.3627 18.4568 16.1142 18.5988L13.1327 20.3025C12.9198 20.4444 12.6358 20.3735 12.6358 20.0895V12.4938C12.6358 12.2906 12.8146 12.0273 12.9907 11.9259L19.8056 8.02161C19.9949 7.91267 20.1605 8.08715 20.1605 8.30556V12.3519C20.1605 12.5616 20.0616 12.7501 19.8765 12.8488L16.8241 14.4815C16.639 14.5802 16.4691 14.7686 16.4691 14.9784V18.0309Z" fill="#999999"/>
<path fill-rule="evenodd" clip-rule="evenodd" d="M1.56152 16.611V6.24684C1.56152 5.83925 1.77554 5.45524 2.12942 5.25301L10.7899 0.354864C10.9765 0.255981 11.2868 0.212891 11.4998 0.212891C11.7128 0.212891 12.0413 0.265632 12.2097 0.354866L20.7992 5.25301C20.9691 5.35343 21.2 5.58473 21.2961 5.74993L11.7837 11.145C11.6068 11.2461 11.4998 11.4381 11.4998 11.6419V22.787C11.3053 22.787 11.1065 22.7447 10.9319 22.645L2.20041 17.6049C1.84652 17.4026 1.56152 17.0186 1.56152 16.611ZM2.8393 8.30548V12.3518C2.8393 12.6357 2.91029 12.7777 3.19424 12.9197L6.17572 14.6234C6.45967 14.7654 6.53066 14.9783 6.53066 15.1913V18.0308C6.53066 18.3147 6.60165 18.4567 6.8856 18.5987L9.86708 20.3024C10.151 20.4444 10.364 20.3734 10.364 20.0894V12.4938C10.364 12.2808 10.293 12.0678 10.0091 11.9259L3.33621 8.09252C3.12325 7.95055 2.8393 8.02153 2.8393 8.30548ZM14.4813 3.47832L11.8547 4.96906C11.6418 5.11104 11.3578 5.11104 11.1449 4.96906L8.51831 3.47832C8.34542 3.3806 8.12359 3.3811 7.95041 3.47832L4.68498 5.324C4.40103 5.46598 4.40103 5.74993 4.68498 5.8919L11.2158 9.65425C11.3906 9.75431 11.609 9.75431 11.7837 9.65425L18.3146 5.8919C18.5276 5.74993 18.5986 5.46598 18.3146 5.324L15.0492 3.47832C14.876 3.3811 14.6542 3.3806 14.4813 3.47832Z" fill="#F2F2F2"/>
</svg>

<svg width="23" height="23" viewBox="0 0 23 23" fill="none" xmlns="http://www.w3.org/2000/svg" focusable="false">
  <path fill-rule="evenodd" clip-rule="evenodd" d="M11.5 11.617v11.17a.897.897 0 00.497-.142l8.944-5.111c.354-.202.498-.516.498-.923V6.247a.87.87 0 00-.143-.497l-9.51 5.373a.568.568 0 00-.286.494zm4.97 6.414c0 .284-.107.426-.356.568l-2.981 1.703c-.213.142-.497.072-.497-.212v-7.596c0-.203.179-.467.355-.568l6.815-3.904c.189-.11.354.065.354.284v4.046c0 .21-.098.398-.284.497l-3.052 1.633c-.185.098-.355.287-.355.496v3.053z" fill="#999"/>
  <path fill-rule="evenodd" clip-rule="evenodd" d="M1.562 16.611V6.247c0-.408.214-.792.567-.994L10.79.355c.188-.099.498-.142.71-.142.214 0 .542.053.71.142l8.59 4.898c.17.1.401.332.497.497l-9.512 5.395a.572.572 0 00-.284.497v11.145a1.14 1.14 0 01-.568-.142L2.2 17.605c-.353-.202-.638-.586-.638-.994zm1.277-8.306v4.047c0 .284.071.426.355.568l2.982 1.703a.585.585 0 01.355.568v2.84c0 .284.07.426.355.568l2.981 1.703c.284.142.497.071.497-.213v-7.595a.585.585 0 00-.355-.568L3.336 8.093c-.213-.142-.497-.071-.497.212zm11.642-4.827L11.855 4.97a.645.645 0 01-.71 0L8.518 3.48a.588.588 0 00-.568 0L4.685 5.323c-.284.142-.284.426 0 .568l6.53 3.762c.176.1.394.1.569 0l6.53-3.762c.214-.142.285-.426 0-.568L15.05 3.478a.588.588 0 00-.568 0z" fill="#F2F2F2"/>
</svg>
